X:17
T:Gwir vugale ar Werc'hez
C:Guillou
M:6/8
L:1/8
K:C
|:C2E G2G|GcA G3|EAG D2E|C6:|C2D E2E|
E2F D3|EFG A2G|D3- D3|C2E G2G|GcA G3|EAG D2E|C6||
